pkg/dictee/usr/share/dictee/assets/banner-dark.svg

<?xml version="1.0" encoding="UTF-8" standalone="no"?>
<svg
   viewBox="0 0 330 120"
   width="330"
   height="120"
   version="1.1"
   id="svg9"
   xmlns="http://www.w3.org/2000/svg"
   xmlns:svg="http://www.w3.org/2000/svg">
  <defs
     id="defs9" />
  <!-- Icon circle -->
  <g
     transform="matrix(2,0,0,2,7.2393112,4)"
     id="g3">
    <path
       style="fill:#e0e0f0"
       d="M 50.996748,28 A 22.996748,22.996748 0 0 1 28.014597,50.996743 22.996748,22.996748 0 0 1 5.0032706,28.029193 22.996748,22.996748 0 0 1 27.95621,5.0032937 22.996748,22.996748 0 0 1 50.996674,27.941613"
       id="path1" />
    <path
       style="fill:#1a1a2e"
       d="M 27.9999,51.9062 C 41.0546,51.9062 51.9063,41.0547 51.9063,28 51.9063,14.9219 41.0312,4.0938 27.9765,4.0938 14.8983,4.0938 4.0937,14.9219 4.0937,28 c 0,13.0547 10.8281,23.9062 23.9062,23.9062 z m -2.3672,-8.414 c -0.7734,0 -1.3125,-0.5391 -1.3125,-1.2891 v -28.5 c 0,-0.7265 0.5625,-1.3125 1.3125,-1.3125 0.7031,0 1.2656,0.586 1.2656,1.3125 v 28.5 c 0,0.7266 -0.539,1.2891 -1.2656,1.2891 z m 9.4687,-3.3985 c -0.7031,0 -1.2656,-0.5859 -1.2656,-1.289 V 17.0781 c 0,-0.7031 0.5625,-1.289 1.2656,-1.289 0.75,0 1.3126,0.5625 1.3126,1.289 v 21.7266 c 0,0.7031 -0.5626,1.289 -1.3126,1.289 z M 20.8749,37.1172 c -0.7266,0 -1.3125,-0.5625 -1.3125,-1.2891 V 20.0313 c 0,-0.7032 0.5859,-1.2657 1.3125,-1.2657 0.7031,0 1.2656,0.5625 1.2656,1.2657 v 15.7968 c 0,0.7266 -0.5625,1.2891 -1.2656,1.2891 z m 9.4922,-1.875 c -0.7266,0 -1.2891,-0.5625 -1.2891,-1.2656 V 21.9062 c 0,-0.7031 0.5625,-1.2656 1.2891,-1.2656 0.7265,0 1.2891,0.5391 1.2891,1.2656 v 12.0704 c 0,0.7265 -0.5626,1.2656 -1.2891,1.2656 z m 9.5156,-2.7891 c -0.7265,0 -1.2891,-0.5391 -1.2891,-1.2656 v -6.4922 c 0,-0.7266 0.5626,-1.2656 1.2891,-1.2656 0.7266,0 1.2891,0.539 1.2891,1.2656 v 6.4922 c 0,0.7265 -0.5625,1.2656 -1.2891,1.2656 z M 16.0936,31.2813 c -0.7031,0 -1.289,-0.5626 -1.289,-1.2657 v -4.1484 c 0,-0.7032 0.5859,-1.2656 1.289,-1.2656 0.7266,0 1.3126,0.5624 1.3126,1.2656 v 4.1484 c 0,0.7031 -0.586,1.2657 -1.3126,1.2657 z"
       id="path2" />
    <path
       style="fill:none;stroke:#e0e0f0;stroke-width:1.13724"
       d="M 51.350691,28 A 23.350691,23.350691 0 0 1 28.014821,51.350686 23.350691,23.350691 0 0 1 4.649328,28.029643 23.350691,23.350691 0 0 1 27.955536,4.6493515 23.350691,23.350691 0 0 1 51.350616,27.940715"
       id="path3" />
  </g>
  <!-- Title 'dictée' as Libre Baskerville Bold Italic paths (SIL OFL 1.1) -->
  <g
     transform="translate(137.23931,18)"
     fill="#e0e0f0"
     id="g9">
    <path
       transform="matrix(0.062,0,0,-0.062,0,62)"
       d="M 152,-10 Q 114,-10 80.5,9.5 47,29 27,65 7,101 7,151 q 0,51 20,105.5 20,54.5 54.5,105 34.5,50.5 78,91 43.5,40.5 90.5,64 47,23.5 93,23.5 35,0 57.5,-14 22.5,-14 35.5,-40 l 56,201 q 10,35 12.5,47 2.5,12 2.5,19 0,19 -17.5,25.5 Q 472,785 412,785 l 13,45 H 662 L 552,428 Q 525,328 507.5,265 490,202 482,165.5 474,129 474,108 q 0,-22 8,-31 8,-9 17,-9 20,0 44,34 24,34 45,89 l 48,-9 Q 599,84 555.5,37 512,-10 447,-10 q -45,0 -69,23 -24,23 -24,69 0,8 1,20 1,12 4,23 l -6,2 Q 332,85 298,54 264,23 226,6.5 188,-10 152,-10 Z m 44,75 q 27,0 56.5,24 29.5,24 57,63 27.5,39 49.5,85 22,46 35,92 13,46 13,83 0,33 -11.5,49 Q 384,477 359,477 329,477 298.5,455 268,433 240.5,396.5 213,360 191,315.5 169,271 156.5,226.5 144,182 144,144 q 0,-39 14,-59 14,-20 38,-20 z"
       id="path4" />
    <path
       transform="matrix(0.062,0,0,-0.062,40.7,62)"
       d="M 124,-10 Q 87,-10 67,6.5 47,23 47,59 47,85 56.5,117.5 66,150 84,202 l 45,128 q 14,41 19.5,58.5 5.5,17.5 5.5,31.5 0,13 -3.5,18.5 Q 147,444 140,444 127,444 109,427 91,410 74.5,389 58,368 52,357 l -34,21 q 14,26 39,54.5 25,28.5 56.5,53 31.5,24.5 65.5,39.5 34,15 65,15 31,0 47.5,-16 16.5,-16 16.5,-49 0,-19 -6.5,-43.5 Q 295,407 281.5,369 268,331 245,269 L 208,168 q -1,-4 -6,-16.5 -5,-12.5 -9.5,-27 Q 188,110 188,100 q 0,-9 5,-16 5,-7 16,-7 14,0 29.5,11 15.5,11 30,28 14.5,17 27,35 12.5,18 20.5,32 l 35,-21 Q 336,133 313.5,102.5 291,72 261.5,46.5 232,21 197,5.5 162,-10 124,-10 Z m 173,684 q -31,0 -54,21 -23,21 -23,55 0,33 22.5,56.5 Q 265,830 297,830 332,830 354,806.5 376,783 376,751 376,719 352.5,696.5 329,674 297,674 Z"
       id="path5" />
    <path
       transform="matrix(0.062,0,0,-0.062,64.6,62)"
       d="m 357,195 47,-24 Q 360,81 303,35.5 246,-10 179,-10 134,-10 96.5,11 59,32 36,71.5 13,111 13,167 13,217 31.5,269.5 50,322 82,370.5 114,419 156,457 198,495 245.5,517.5 293,540 342,540 395,540 433.5,512 472,484 472,435 472,409 458.5,389.5 445,370 414,370 q -22,0 -36,11 -14,11 -14,31 0,17 6,29.5 6,12.5 6,22.5 0,11 -10,16.5 -10,5.5 -22,5.5 -31,0 -64.5,-30 Q 246,426 217.5,377.5 189,329 171.5,271.5 154,214 154,158 154,110 169,84.5 184,59 212,59 q 24,0 50.5,18 26.5,18 51.5,49 25,31 43,69 z"
       id="path6" />
    <path
       transform="matrix(0.062,0,0,-0.062,93.4,62)"
       d="M 123,-10 Q 71,-10 51.5,5.5 32,21 32,55 q 0,20 7,54.5 7,34.5 24,92.5 l 74,245 H 61 l 16,56 h 77 l 49,162 H 335 L 286,503 h 99 L 368,447 H 269 L 186,172 q -7,-24 -11.5,-41 -4.5,-17 -5.5,-31 0,-9 4.5,-16 4.5,-7 15.5,-7 18,0 37.5,12 19.5,12 38,30 18.5,18 33,35 14.5,17 21.5,27 l 29,-17 Q 331,130 304,98.5 277,67 244.5,42.5 212,18 180.5,4 149,-10 123,-10 Z"
       id="path7" />
    <path
       transform="matrix(0.062,0,0,-0.062,117.7,62)"
       d="M 177,-10 Q 99,-10 54.5,33.5 10,77 10,156 10,211 29.5,265.5 49,320 83,369.5 q 34,49.5 78,88 44,38.5 92.5,60.5 48.5,22 97.5,22 56,0 92.5,-25.5 Q 480,489 480,447 480,411 454,374.5 428,338 382.5,305 337,272 278,245.5 219,219 153,202 151,189 149.5,175.5 148,162 148,150 148,104 165.5,79.5 183,55 215,55 250,55 291.5,85.5 333,116 365,168 l 42,-30 Q 365,66 306,28 247,-10 177,-10 Z m -10,268 q 57,17 101,45 44,28 69.5,63.5 25.5,35.5 25.5,74.5 0,42 -32,42 -24,0 -48,-20.5 Q 259,442 236.5,408.5 214,375 196,335.5 178,296 167,258 Z m 180,393 h -67 l 118,119 q 20,20 36,31.5 16,11.5 35,11.5 23,0 39.5,-15 16.5,-15 16.5,-36 0,-14 -9.5,-25.5 Q 506,725 486,716 Z"
       id="path8" />
    <path
       transform="matrix(0.062,0,0,-0.062,147.6,62)"
       d="M 177,-10 Q 99,-10 54.5,33.5 10,77 10,156 10,211 29.5,265.5 49,320 83,369.5 q 34,49.5 78,88 44,38.5 92.5,60.5 48.5,22 97.5,22 56,0 92.5,-25.5 Q 480,489 480,447 480,411 454,374.5 428,338 382.5,305 337,272 278,245.5 219,219 153,202 151,189 149.5,175.5 148,162 148,150 148,104 165.5,79.5 183,55 215,55 250,55 291.5,85.5 333,116 365,168 l 42,-30 Q 365,66 306,28 247,-10 177,-10 Z m -10,268 q 57,17 101,45 44,28 69.5,63.5 25.5,35.5 25.5,74.5 0,42 -32,42 -24,0 -48,-20.5 Q 259,442 236.5,408.5 214,375 196,335.5 178,296 167,258 Z"
       id="path9" />
  </g>
</svg>

<?xml version="1.0" encoding="UTF-8" standalone="no"?>
<svg xmlns="http://www.w3.org/2000/svg" viewBox="0 0 480 120" width="480" height="120">
  <!-- Icon circle -->
  <g transform="translate(10, 4) scale(2)">
    <path
       style="fill:#e0e0f0"
       d="M 50.996748,28 A 22.996748,22.996748 0 0 1 28.014597,50.996743 22.996748,22.996748 0 0 1 5.0032706,28.029193 22.996748,22.996748 0 0 1 27.95621,5.0032937 22.996748,22.996748 0 0 1 50.996674,27.941613" />
    <path
       style="fill:#1a1a2e"
       d="M 27.9999 51.9062 C 41.0546 51.9062 51.9063 41.0547 51.9063 28.0000 C 51.9063 14.9219 41.0312 4.0938 27.9765 4.0938 C 14.8983 4.0938 4.0937 14.9219 4.0937 28.0000 C 4.0937 41.0547 14.9218 51.9062 27.9999 51.9062 Z M 25.6327 43.4922 C 24.8593 43.4922 24.3202 42.9531 24.3202 42.2031 L 24.3202 13.7031 C 24.3202 12.9766 24.8827 12.3906 25.6327 12.3906 C 26.3358 12.3906 26.8983 12.9766 26.8983 13.7031 L 26.8983 42.2031 C 26.8983 42.9297 26.3593 43.4922 25.6327 43.4922 Z M 35.1014 40.0937 C 34.3983 40.0937 33.8358 39.5078 33.8358 38.8047 L 33.8358 17.0781 C 33.8358 16.375 34.3983 15.7891 35.1014 15.7891 C 35.8514 15.7891 36.4140 16.3516 36.4140 17.0781 L 36.4140 38.8047 C 36.4140 39.5078 35.8514 40.0937 35.1014 40.0937 Z M 20.8749 37.1172 C 20.1483 37.1172 19.5624 36.5547 19.5624 35.8281 L 19.5624 20.0313 C 19.5624 19.3281 20.1483 18.7656 20.8749 18.7656 C 21.5780 18.7656 22.1405 19.3281 22.1405 20.0313 L 22.1405 35.8281 C 22.1405 36.5547 21.5780 37.1172 20.8749 37.1172 Z M 30.3671 35.2422 C 29.6405 35.2422 29.0780 34.6797 29.0780 33.9766 L 29.0780 21.9062 C 29.0780 21.2031 29.6405 20.6406 30.3671 20.6406 C 31.0936 20.6406 31.6562 21.1797 31.6562 21.9062 L 31.6562 33.9766 C 31.6562 34.7031 31.0936 35.2422 30.3671 35.2422 Z M 39.8827 32.4531 C 39.1562 32.4531 38.5936 31.9140 38.5936 31.1875 L 38.5936 24.6953 C 38.5936 23.9687 39.1562 23.4297 39.8827 23.4297 C 40.6093 23.4297 41.1718 23.9687 41.1718 24.6953 L 41.1718 31.1875 C 41.1718 31.9140 40.6093 32.4531 39.8827 32.4531 Z M 16.0936 31.2813 C 15.3905 31.2813 14.8046 30.7187 14.8046 30.0156 L 14.8046 25.8672 C 14.8046 25.1640 15.3905 24.6016 16.0936 24.6016 C 16.8202 24.6016 17.4062 25.1640 17.4062 25.8672 L 17.4062 30.0156 C 17.4062 30.7187 16.8202 31.2813 16.0936 31.2813 Z" />
    <path
       style="fill:none;stroke:#e0e0f0;stroke-width:1.13724"
       d="M 51.350691,28 A 23.350691,23.350691 0 0 1 28.014821,51.350686 23.350691,23.350691 0 0 1 4.649328,28.029643 23.350691,23.350691 0 0 1 27.955536,4.6493515 23.350691,23.350691 0 0 1 51.350616,27.940715" />
  </g>
  <!-- Title 'dictée' as Libre Baskerville Bold Italic paths (SIL OFL 1.1) -->
  <g transform="translate(140, 18)" fill="#e0e0f0">
    <path transform="translate(0.0, 62) scale(0.062000, -0.062000)" d="M152 -10Q114 -10 80.5 9.5Q47 29 27.0 65.0Q7 101 7 151Q7 202 27.0 256.5Q47 311 81.5 361.5Q116 412 159.5 452.5Q203 493 250.0 516.5Q297 540 343 540Q378 540 400.5 526.0Q423 512 436 486L492 687Q502 722 504.5 734.0Q507 746 507 753Q507 772 489.5 778.5Q472 785 412 785L425 830H662L552 428Q525 328 507.5 265.0Q490 202 482.0 165.5Q474 129 474 108Q474 86 482.0 77.0Q490 68 499 68Q519 68 543.0 102.0Q567 136 588 191L636 182Q599 84 555.5 37.0Q512 -10 447 -10Q402 -10 378.0 13.0Q354 36 354 82Q354 90 355.0 102.0Q356 114 359 125L353 127Q332 85 298.0 54.0Q264 23 226.0 6.5Q188 -10 152 -10ZM196 65Q223 65 252.5 89.0Q282 113 309.5 152.0Q337 191 359.0 237.0Q381 283 394.0 329.0Q407 375 407 412Q407 445 395.5 461.0Q384 477 359 477Q329 477 298.5 455.0Q268 433 240.5 396.5Q213 360 191.0 315.5Q169 271 156.5 226.5Q144 182 144 144Q144 105 158.0 85.0Q172 65 196 65Z" />
    <path transform="translate(40.7, 62) scale(0.062000, -0.062000)" d="M124 -10Q87 -10 67.0 6.5Q47 23 47 59Q47 85 56.5 117.5Q66 150 84 202L129 330Q143 371 148.5 388.5Q154 406 154 420Q154 433 150.5 438.5Q147 444 140 444Q127 444 109.0 427.0Q91 410 74.5 389.0Q58 368 52 357L18 378Q32 404 57.0 432.5Q82 461 113.5 485.5Q145 510 179.0 525.0Q213 540 244 540Q275 540 291.5 524.0Q308 508 308 475Q308 456 301.5 431.5Q295 407 281.5 369.0Q268 331 245 269L208 168Q207 164 202.0 151.5Q197 139 192.5 124.5Q188 110 188 100Q188 91 193.0 84.0Q198 77 209 77Q223 77 238.5 88.0Q254 99 268.5 116.0Q283 133 295.5 151.0Q308 169 316 183L351 162Q336 133 313.5 102.5Q291 72 261.5 46.5Q232 21 197.0 5.5Q162 -10 124 -10ZM297 674Q266 674 243.0 695.0Q220 716 220 750Q220 783 242.5 806.5Q265 830 297 830Q332 830 354.0 806.5Q376 783 376 751Q376 719 352.5 696.5Q329 674 297 674Z" />
    <path transform="translate(64.6, 62) scale(0.062000, -0.062000)" d="M357 195 404 171Q360 81 303.0 35.5Q246 -10 179 -10Q134 -10 96.5 11.0Q59 32 36.0 71.5Q13 111 13 167Q13 217 31.5 269.5Q50 322 82.0 370.5Q114 419 156.0 457.0Q198 495 245.5 517.5Q293 540 342 540Q395 540 433.5 512.0Q472 484 472 435Q472 409 458.5 389.5Q445 370 414 370Q392 370 378.0 381.0Q364 392 364 412Q364 429 370.0 441.5Q376 454 376 464Q376 475 366.0 480.5Q356 486 344 486Q313 486 279.5 456.0Q246 426 217.5 377.5Q189 329 171.5 271.5Q154 214 154 158Q154 110 169.0 84.5Q184 59 212 59Q236 59 262.5 77.0Q289 95 314.0 126.0Q339 157 357 195Z" />
    <path transform="translate(93.4, 62) scale(0.062000, -0.062000)" d="M123 -10Q71 -10 51.5 5.5Q32 21 32 55Q32 75 39.0 109.5Q46 144 63 202L137 447H61L77 503H154L203 665H335L286 503H385L368 447H269L186 172Q179 148 174.5 131.0Q170 114 169 100Q169 91 173.5 84.0Q178 77 189 77Q207 77 226.5 89.0Q246 101 264.5 119.0Q283 137 297.5 154.0Q312 171 319 181L348 164Q331 130 304.0 98.5Q277 67 244.5 42.5Q212 18 180.5 4.0Q149 -10 123 -10Z" />
    <path transform="translate(117.7, 62) scale(0.062000, -0.062000)" d="M177 -10Q99 -10 54.5 33.5Q10 77 10 156Q10 211 29.5 265.5Q49 320 83.0 369.5Q117 419 161.0 457.5Q205 496 253.5 518.0Q302 540 351 540Q407 540 443.5 514.5Q480 489 480 447Q480 411 454.0 374.5Q428 338 382.5 305.0Q337 272 278.0 245.5Q219 219 153 202Q151 189 149.5 175.5Q148 162 148 150Q148 104 165.5 79.5Q183 55 215 55Q250 55 291.5 85.5Q333 116 365 168L407 138Q365 66 306.0 28.0Q247 -10 177 -10ZM167 258Q224 275 268.0 303.0Q312 331 337.5 366.5Q363 402 363 441Q363 483 331 483Q307 483 283.0 462.5Q259 442 236.5 408.5Q214 375 196.0 335.5Q178 296 167 258ZM347 651H280L398 770Q418 790 434.0 801.5Q450 813 469 813Q492 813 508.5 798.0Q525 783 525 762Q525 748 515.5 736.5Q506 725 486 716Z" />
    <path transform="translate(147.6, 62) scale(0.062000, -0.062000)" d="M177 -10Q99 -10 54.5 33.5Q10 77 10 156Q10 211 29.5 265.5Q49 320 83.0 369.5Q117 419 161.0 457.5Q205 496 253.5 518.0Q302 540 351 540Q407 540 443.5 514.5Q480 489 480 447Q480 411 454.0 374.5Q428 338 382.5 305.0Q337 272 278.0 245.5Q219 219 153 202Q151 189 149.5 175.5Q148 162 148 150Q148 104 165.5 79.5Q183 55 215 55Q250 55 291.5 85.5Q333 116 365 168L407 138Q365 66 306.0 28.0Q247 -10 177 -10ZM167 258Q224 275 268.0 303.0Q312 331 337.5 366.5Q363 402 363 441Q363 483 331 483Q307 483 283.0 462.5Q259 442 236.5 408.5Q214 375 196.0 335.5Q178 296 167 258Z" />
  </g>
</svg>
